!!!!SEGMENT: pl-sa--l-1636--081_anonim--lectia.krn
!!!cenid: 17xx:788
!!!COM: Anonim
!!!COM-rismID: pe30004985
!!!CDT:
!!!CNT:
!!!OTL: Lectia
!!!PDT:
!!!AGN:
!!!SMS-siglum: PL-SA
!!!SMS-shelfmark: L 1636
!!!SMS-shelfwork: 081 W
!!!SMS-variant:
!!!SMS-altvar:
!!!NIFC-rismSourceID: 1001077028
!!!NIFC-islandoraID:
!!!URL-pdf-islandora:
!!!URL-scan:
!!!ONB-nifc: 27v-28v, skan 0031 (s. 2)-0032
!!!AIN: 1 empty 1 organ
!!!key:
**kern	**kern
*part2	*part1
*staff2	*staff1
*Iempty	*Iorgan
*I"[Keyboard]	*I"Organo
*I'keyb	*I'Org.
*clefF4	*clefG2
*k[b-]	*k[b-]
*g:	*g:
*M2/2	*M2/2
*met(c|)	*met(c|)
=1	=1
*2\right	*2\right
!	!LO:TX:b:i:t=Lectia
1G 1GG	1dd 1b- 1g
*clefC4	*
=2-	=2-
*^	*^
16d/LL	[<2G\	2b-/	[<2g\
16e-X/	.	.	.
16f/	.	.	.
16e-/JJ	.	.	.
16fT/LL	.	.	.
16e-/	.	.	.
16f/	.	.	.
32e-X/L	.	.	.
32d/JJJ	.	.	.
2e-X/	2G\_<	16b-/LL	2g\_<
.	.	16cc/	.
.	.	16dd/	.
.	.	16cc/JJ	.
.	.	16ddT;/LL	.
.	.	16cc/	.
.	.	16dd/	.
.	.	32cc/L	.
.	.	32b-/JJJ	.
=3	=3	=3	=3
16e/LL	1G_<	2dd/	2g\]
16d/	.	.	.
16e/	.	.	.
16d/JJ	.	.	.
16e/LL	.	.	.
16d/	.	.	.
16e/	.	.	.
32d/L	.	.	.
32c/JJJ	.	.	.
4e-X/	.	8dd\L	2ryy
.	.	8g\J	.
8e-/L	.	8gg\L	.
16d/L	.	16ff\L	.
16c/JJ	.	16ee-X\JJ	.
*	*	*v	*v
=4	=4	=4
16Bn/LL	2G\_<	16dd\LL
16c/	.	16ee\
16d/	.	16ff\
16c/JJ	.	16ee-X\JJ
!	!	!LO:N:vis=8
16d/LL	.	16ff\LL
!LO:N:vis=16	!	!LO:N:vis=16
32c/L	.	32ee-\L
!LO:N:vis=16	!	!LO:N:vis=16
32dT;/	.	32ffT;\
!LO:N:vis=16	!	!LO:N:vis=16
32c/	.	32ee-\
32d/	.	32ff\
32c/	.	32ee-\
32B#/JJJ	.	32dd\JJJ
!	!	!LO:TX:a:t=P:problem=w tym miejscu łamanie systemu
!!LO:LB:g=original
16c/LL	2G\_<	16ee-X\LL
16B-X/	.	16dd\
16c/	.	16ee-\
16A/JJ	.	16cc\JJ
16d/LL	.	16b-\LL
16c/	.	16a\
16d/	.	16b-\
16B-/JJ	.	16g\JJ
!!LO:LB:g=original
=5	=5	=5
*	*	*^
16e-X/LL	2G\]	16gg\LL	2ryy
16d/	.	16ff\	.
16e-/	.	16gg\	.
16B-/JJ	.	16dd\JJ	.
16c/LL	.	16ee-X\LL	.
16B-/	.	16dd\	.
16c/	.	16ee-\	.
16A/JJ	.	16cc\JJ	.
!	!	!LO:TX:a:t=P:problem=przedłużenie o kropkę w następnym takcie	!
16B#X\LL	2ryy	[2dd/	[<2g\
16c\	.	.	.
16d#X\	.	.	.
16G\JJ	.	.	.
32A\LLL	.	.	.
32B#\	.	.	.
32c\	.	.	.
32d#\JJJ	.	.	.
32e-\LLL	.	.	.
32f\	.	.	.
32g\	.	.	.
32d#\JJJ	.	.	.
=6	=6	=6	=6
2.e-X/	2G\	4dd/]	2.g\]
.	.	8cc/L	.
.	.	8b-/J	.
.	2A\	2cc/	.
8dt;/L	.	.	4a\
8c/J	.	.	.
*v	*v	*	*
=7	=7	=7
16B-\LL	[>2dd/	2f\
16c\	.	.
16A\	.	.
16B-\JJ	.	.
16G\LL	.	.
16B-T;\	.	.
16A\	.	.
16G\JJ	.	.
!	!LO:TX:a:t=P:problem=przedłużenie o kropkę w następnym takcie	!
16F/LL	2dd/_>	2a\
16G/	.	.
16E/	.	.
16F/JJ	.	.
16D/LL	.	.
16FT;/	.	.
16E/	.	.
16D/JJ	.	.
!!LO:LB:g=original
=8	=8	=8
*clefF4	*	*
2.E-X\	4dd/]	[<2g\
.	8cc/L	.
.	8b-/J	.
.	2cc/	4g\]
8Dt;\L	.	8f#Xt;\L
8C\J	.	8e\J
=9	=9	=9
!LO:TX:a:t=P:problem=mixed beam	!	!
8D/L	4ryy	2f\
16A\L	.	.
16G\JJ	.	.
8F\L	[>4b-/	.
16E\L	.	.
16D\JJ	.	.
!LO:TX:a:t=P:problem=mixed beam	!	!
8C/L	4b-/]	2e-X\
16G\L	.	.
16F\JJ	.	.
8E-X\L	[>4a/	.
16D\L	.	.
16C\JJ	.	.
=10	=10	=10
!LO:TX:a:t=P:problem=mixed beam	!	!
8BB-/L	4a/]	2d\
16F\L	.	.
16E\JJ	.	.
8D/L	[>4g/	.
16C/L	.	.
16BB-/JJ	.	.
8AA/L	4g/]	2c\
16A\L	.	.
16G\JJ	.	.
8F#X\L	4a/	.
16E\L	.	.
16F#X\JJ	.	.
*	*v	*v
=11	=11
*^	*
8A/L	[<2F\	4cc/
16d/L	.	.
16c/JJ	.	.
8B-/L	.	4dd/
16A/L	.	.
16B-/JJ	.	.
4A/	2F\]	8cc/L
.	.	16ff/L
.	.	16ee-X/JJ
4B-/	.	8dd/L
.	.	16cc/L
.	.	16dd/JJ
!!LO:PB:g=original
=12	=12	=12
2A/	4F\	16cc\LL
.	.	16a\
.	.	16b-\
.	.	16cc\JJ
!	!	!LO:TX:a:t=P:problem=mixed beam
.	4D\	16dd\LL
.	.	16f/
.	.	16g/
.	.	16a/JJ
[>2G/	4BB-\	16b-/LL
.	.	16e/
.	.	16f/
.	.	16g/JJ
.	4C\	16e/LL
.	.	16c/
.	.	16d/
.	.	16e/JJ
=13	=13	=13
4G/]	2AA\	16f#X/LL
.	.	16g/
.	.	16a/
.	.	16b-/JJ
4F#X/	.	16cc\LL
.	.	16dd\
.	.	16a\
.	.	16cc\JJ
[>2G/	4GG\	16b-\LL
.	.	16dd\
.	.	16cc\
.	.	16b-\JJ
.	4AA\	16a/LL
.	.	16g/
.	.	16f#/
.	.	16e/JJ
=14	=14	=14
*	*	*clefC1
2G/]	4BB-\	16f/LL
.	.	16a/
.	.	16g/
.	.	16f/JJ
.	4C\	16e/LL
.	.	16d/
.	.	16c/
.	.	16B-/JJ
*	*	*clefG2
4F#X/	4D\	16a\LL
.	.	16cc\
.	.	16b-\
.	.	16a\JJ
!	!	!LO:TX:a:t=P:problem=mixed beam
4G/	4ryy	16dd\LL
.	.	16d/
.	.	16g/
.	.	16f/JJ
!!LO:LB:g=original
=15	=15	=15
4G/	4C\	16e/LL
.	.	16gT;/
.	.	16f/
.	.	16e/JJ
[>4F/	4AA\	16a/LL
.	.	16ccT;/
.	.	16b-/
.	.	16a/JJ
4F/]	2GG\	16b-\LL
.	.	16cc\
.	.	16dd\
.	.	16ee\JJ
4E/	.	16g/LL
.	.	16a/
.	.	16b-/
.	.	16cc/JJ
=16	=16	=16
4F#X/	2D\	16a/LL
.	.	16d/
.	.	16e/
.	.	16f/JJ
4E/	.	16g/LL
.	.	16a/
.	.	16b-/
.	.	16cc/JJ
4F#X/	2D\	16dd/LL
.	.	16a/
.	.	16b-/
.	.	16cc/JJ
4G/	.	16b-/LL
.	.	16ddT;/
.	.	16cc/
.	.	16b-/JJ
*v	*v	*
=17	=17
*	*^
16F#X\LL	4a/	2d\
16A\	.	.
16G\	.	.
16F#\JJ	.	.
16B-\LL	[>4g/	.
16A\	.	.
16G\	.	.
16F#\JJ	.	.
16E\LL	4g/]	2c\
16C\	.	.
16D\	.	.
16E\JJ	.	.
16F#\LL	[>4f/	.
16E\	.	.
16D\	.	.
16C\JJ	.	.
=18	=18	=18
*^	*	*
16D\	2ryy	4f/]	4B-\
!LO:TX:a:t=P:problem=nuty nieczytelne - defekt źródła	!	!	!
16ryy	.	.	.
16ryy	.	.	.
16ryy	.	.	.
!!LO:LB:g=original
!LO:TX:a:t=P:problem=w tym miejscu łamanie systemu	!	!	!
16G\LL	.	4e-X/	4B-\
16F\	.	.	.
16E-X\	.	.	.
16D\JJ	.	.	.
4B-/	2C\	16e-/LL	2ryy
.	.	16f/	.
.	.	16g/	.
.	.	16a/JJ	.
4A/	.	16b-\LL	.
.	.	16cc\	.
.	.	16dd\	.
.	.	[>16ee\JJ	.
*clefC4	*	*	*
!!LO:LB:g=original
=19	=19	=19	=19
4B#X/	[<2G\	8ee\L]	2ryy
.	.	8dd\	.
4c/	.	8ff\	.
.	.	8ee\J	.
4d/	2G\]	2dd/	8b#X\L
.	.	.	8a\
4e/	.	.	8cc\
.	.	.	8b#\J
*v	*v	*	*
=20	=20	=20
8f\L	1cc	4a\
8d\	.	.
8g\	.	4b-\
8f\J	.	.
8e-X\L	.	4b-\
8c\	.	.
8f\	.	4a\
8e-X\J	.	.
=21	=21	=21
*^	*	*
4d/	8B-\L	4dd/	4b-\
.	8G\J	.	.
4ryy	8c\L	[>4ee/	4g\
.	8B-\J	.	.
2ryy	8A\L	4ee/]	4.f\
.	8F\J	.	.
.	4B-\	4dd/	.
.	.	.	8g\
=22	=22	=22	=22
1ryy	4B-\	4cc/	8e-X\L
.	.	.	8c\J
.	4A\	4dd/	4f\
!!LO:LB:g=original
!LO:TX:a:t=P:problem=w tym miejscu łamanie systemu	!	!	!
.	2G\	8b-/L	4f\
.	.	8g/	.
.	.	8cc/	4e-\
.	.	8b-/J	.
!!LO:LB:g=original
=23	=23	=23	=23
8c/L	2F\	2a/	2.f\
8A/	.	.	.
8d/	.	.	.
8c/J	.	.	.
8B-/L	2ryy	2b-/	.
8G/	.	.	.
8c/	.	.	4e\
8B-/J	.	.	.
*	*	*v	*v
=24	=24	=24
4c 4A/	[<2F\	8f/L
.	.	8c/
4d-X 4B-/	.	8e-X/
.	.	8d/J
4c/	2F\]	8ff\L
.	.	8cc\
4A/	.	8ff\
.	.	8ee\J
*v	*v	*
=25	=25
*	*^
!LO:TX:a:t=P:problem=mixed beam	!	!
8B-\L	2dd/	4r
8F/J	.	.
8g\L	.	[<4b-\
8f\J	.	.
8e-X\L	4.cc/	4b-\]
8c\J	.	.
4f\	.	4a\
.	8dd/	.
*	*v	*v
=26	=26
*^	*
2g/	4f\	8b-/L
.	.	8g/
.	[<4e-X\	8cc/
.	.	8b-/J
2f/	4e-\]	16a/LL
.	.	16f/
.	.	16g/
.	.	16a/JJ
.	4d\	16b-/LL
.	.	16cc/
.	.	16dd/
.	.	16b-/JJ
!!LO:PB:g=original
=27	=27	=27
2e-/	4d\	8cc\L
.	.	8g\J
.	[<4c\	8gg\L
.	.	16ff\L
.	.	16ee-X\JJ
2d/	4c\]	8ff\L
.	.	8dd\
.	4B-\	8gg\
.	.	8ff\J
*v	*v	*
=28	=28
*	*^
!	!LO:TX:a:t=P:problem=przedłużenie o kropkę	!
8D-X/L	[>2ee-X/	2g\
8BB-/J	.	.
8c\L	.	.
8B-\J	.	.
16A\LL	4ee-/]	2f\
16F\	.	.
16G\	.	.
16A\JJ	.	.
16B-\LL	4dd/	.
16c\	.	.
16d\	.	.
16B-\JJ	.	.
=29	=29	=29
8e\L	2.cc/	8g\L
8c\	.	8e\
8f\	.	8a\
8e\J	.	8g\J
2d\	.	8f\L
.	.	8d\
.	4b-/	8g\
.	.	8f\J
=30	=30	=30
8d\L	8b-/L	2ryy
8e-X\J	8g/J	.
8e-\L	8g/L	.
!LO:TX:a:t=c	!	!
8c\J	8a/J	.
2B-\	8dd/L	4f\
.	8b-/J	.
.	8ee-X/L	[<4g\
.	8dd/J	.
=31	=31	=31
2A\	8cc/L	4g\]
.	8a/J	.
.	8dd/L	4f#X\
.	8cc/J	.
!!LO:LB:g=original
!LO:TX:a:t=P:problem=w tym miejscu łamanie systemu	!	!
8g\L	8b#X/L	2ryy
8f\	8g/J	.
8e\	8gg\L	.
8d\J	8ff\J	.
*clefF4	*	*
!!LO:LB:g=original
=32	=32	=32
8c\L	2ee-X/	8r
8B-\	.	8g\L
8A\	.	8cc\
8G\J	.	8b-\J
8F\L	2a/	8r
8E\	.	8c\L
8D\	.	8f\
8C\J	.	8e\J
=33	=33	=33
8BB-/L	8r	2d\
8AA/	8f/L	.
8GG/	8b-/	.
8FF/J	8a/J	.
8E-X\L	8r	2a 2f\
8D\	8cc/L	.
8C\	8ee-X/	.
8BB-\J	8dd/J	.
*clefC4	*	*
=34	=34	=34
*^	*	*
8f/L	2F\	8r	2a\
8e/	.	8cc/L	.
8d/	.	8ff/	.
8c/J	.	8ee/J	.
8B-\L	2ryy	2dd/	8r
8A\	.	.	8f\L
8G\	.	.	8b-\
8F\J	.	.	8a\J
*v	*v	*	*
*	*v	*v
*clefF4	*
=35	=35
8E-X\L	16g/LL
.	16a/
8C\J	16b-/
.	16cc/JJ
8F\L	16a/LL
.	16cc/
8E-\J	16dd/
.	16ee/JJ
8D/L	16ff\LL
.	16dd\JJ
8BB-/J	16gg\LL
.	16ff\JJ
8C/L	16ee-X\LL
.	16cc\
8AA/J	16ff\
.	16ee-\JJ
!!LO:LB:g=original
=36	=36
*^	*^
2BB-\	2ryy	4dd/	8f\L
.	.	.	8d\J
.	.	[>4b-/	8g\L
.	.	.	8f\J
2C\	8G/L	4b-/]	2e-X\
!LO:SIC:v"s=8E-	!	!	!
.	8E/J	.	.
.	[>4c/	4a/	.
=37	=37	=37	=37
2C\	4c/]	16f/LL	2reyy
.	.	16d/	.
.	.	16e/	.
.	.	16f#X/JJ	.
.	4B-/	16g/LL	.
.	.	16a/	.
.	.	16b-/	.
.	.	16cc/JJ	.
16F#X\LL	2ryy	2dd/	4a\
16D\	.	.	.
16E\	.	.	.
16F#\JJ	.	.	.
16G\LL	.	.	4b-\
16A\	.	.	.
16B-\	.	.	.
16G\JJ	.	.	.
*	*	*v	*v
=38	=38	=38
4F#X/	4D\	16a\LL
.	.	16dd\
.	.	16cc\
.	.	16dd\JJ
!	!	!LO:TX:a:t=P:problem=mixed beam
4G/	4E\	16g/LL
.	.	16cc\
.	.	16b-\
.	.	16cc\JJ
4A/	4F#\	16c/LL
.	.	16f/
.	.	16e/
.	.	16f/JJ
4B#X/	4G\	16d/LL
.	.	16g/
.	.	16f/
.	.	16g/JJ
=39	=39	=39
2A/	4G\	16cc\LL
.	.	16a\
.	.	16b-\
.	.	16cc\JJ
.	4F\	16dd\LL
.	.	16ee\
.	.	16cc\
.	.	16dd\JJ
!	!	!LO:TX:a:t=P:problem=w tym miejscu łamanie systemu
!!LO:LB:g=original
2G/	4F\	16b#\LL
.	.	16cc\
.	.	16dd\
.	.	16ee\JJ
.	4E\	16ff\LL
.	.	16gg\
.	.	16aa\
.	.	16cc\JJ
*v	*v	*
!!LO:LB:g=original
=40	=40
*	*^
16F#X\LL	2dd/	4cc\
16E\	.	.
16F#\	.	.
16D\JJ	.	.
16G\LL	.	4b-\
16F#\	.	.
16G\	.	.
16E\JJ	.	.
!LO:TX:a:t=P:problem=mixed beam	!	!
16E-X\LL	2cc/	4b-\
16F#\	.	.
16G\	.	.
16C/JJ	.	.
16F#\LL	.	4a\
16G\	.	.
16A\	.	.
16F#\JJ	.	.
*clefC4	*	*
=41	=41	=41
16d\LL	2b-/	4a\
16e\	.	.
16f\	.	.
16d\JJ	.	.
16g\LL	.	4g\
16f\	.	.
16e\	.	.
16d\JJ	.	.
!LO:TX:a:t=P:problem=mixed beam	!	!
16c\LL	2a/	4g\
16C/	.	.
16D/	.	.
16E/JJ	.	.
16F/LL	.	4f\
16G/	.	.
16A/	.	.
16F/JJ	.	.
=42	=42	=42
16B-\LL	2g/	4f\
16G\	.	.
16A\	.	.
16B-\JJ	.	.
[>4c\	.	4e\
4c\]	4a/	4f#X\
8B-\L	4b-/	4g\
8c\J	.	.
!!LO:LB:g=original
=43	=43	=43
!	!	!LO:TX:a:t=P:problem=nuta nieczytelna - defekt źródła
2d\	[>2a/	2ryy
2D/	2a/]	4.d\
.	.	8c\
*	*v	*v
=44	=44
1d 1B- 1D	1g 1d 1B-
!LO:TX:a:t=P:||:problem=w źródle końcowa kreska taktowa 	!LO:TX:a:t=P:||:problem=w źródle końcowa kreska taktowa 
==;	==;
*-	*-
!!!system-decoration: s1,s2
!!!RDF**kern: > = above
!!!RDF**kern: < = below
!!!EED: Antoni Szymański
!!!EEV: 2020-12-08
!!!ENC: Berenika Jozajtis
!!!END: 2020-06-13
!!!YEC: Copyright 2022 Narodowy Instytut Fryderyka Chopina (https://polishscores.org)
!!!YEM: Licence CC BY 4.0 (https://creativecommons.org/licenses/by/4.0)
